svgs/light/golf-ball-tee.svg

<svg xmlns="http://www.w3.org/2000/svg" viewBox="0 0 384 512"><!--! Font Awesome Pro 6.3.0 by @fontawesome - https://fontawesome.com License - https://fontawesome.com/license (Commercial License) Copyright 2023 Fonticons, Inc. --><path d="M288 336H96c-6.734 0-12.75 4.219-15.05 10.56c-2.297 6.312-.375 13.41 4.797 17.72L176 439.5V496c0 8.844 7.156 16 16 16S208 504.8 208 496v-56.51l90.25-75.21c5.172-4.312 7.094-11.41 4.797-17.72C300.8 340.2 294.7 336 288 336zM192 411.2L140.2 368h103.6L192 411.2zM192 304c26.47 0 48-21.53 48-48c0-8.844-7.156-16-16-16S208 247.2 208 256c0 8.812-7.172 16-16 16C183.2 272 176 279.2 176 288S183.2 304 192 304zM192 .0001c-101.5 0-184 82.53-184 183.1c0 41.25 13.1 80.66 40.48 113.1c5.469 6.875 15.53 8.062 22.47 2.562c6.922-5.5 8.062-15.56 2.562-22.5C51.59 250.5 40 217.9 40 184C40 100.2 108.2 32 192 32s152 68.19 152 152c0 33.94-11.59 66.47-33.52 94.03c-5.5 6.938-4.359 17 2.562 22.5C315.1 302.9 319.5 304 322.1 304c4.719 0 9.375-2.062 12.53-6.031C361.1 264.7 376 225.3 376 184C376 82.53 293.5 .0001 192 .0001zM192 208c26.47 0 48-21.53 48-48c0-8.844-7.156-16-16-16S208 151.2 208 160c0 8.812-7.172 16-16 16C183.2 176 176 183.2 176 192S183.2 208 192 208zM304 176C295.2 176 288 183.2 288 192c0 8.812-7.172 16-16 16C263.2 208 256 215.2 256 224s7.156 16 16 16C298.5 240 320 218.5 320 192C320 183.2 312.8 176 304 176z"/></svg>

<svg xmlns="http://www.w3.org/2000/svg" viewBox="0 0 384 512"><!-- Font Awesome Pro 6.0.0-alpha2 by @fontawesome - https://fontawesome.com License - https://fontawesome.com/license (Commercial License) --><path d="M288 336H96C89.266 336 83.25 340.219 80.953 346.562C78.656 352.875 80.578 359.969 85.75 364.281L176 439.492V496C176 504.844 183.156 512 192 512S208 504.844 208 496V439.492L298.25 364.281C303.422 359.969 305.344 352.875 303.047 346.563C300.75 340.219 294.734 336 288 336ZM192 411.188L140.188 368H243.812L192 411.188ZM192 304C218.469 304 240 282.469 240 256C240 247.156 232.844 240 224 240S208 247.156 208 256C208 264.812 200.828 272 192 272C183.156 272 176 279.156 176 288S183.156 304 192 304ZM192 0C90.547 0 8 82.531 8 184C8 225.25 22 264.656 48.484 297.969C53.953 304.844 64.016 306.031 70.953 300.531C77.875 295.031 79.016 284.969 73.516 278.031C51.594 250.469 40 217.938 40 184C40 100.188 108.188 32 192 32S344 100.188 344 184C344 217.938 332.406 250.469 310.484 278.031C304.984 284.969 306.125 295.031 313.047 300.531C315.984 302.875 319.5 304 322.984 304C327.703 304 332.359 301.938 335.516 297.969C362 264.656 376 225.25 376 184C376 82.531 293.453 0 192 0ZM192 208C218.469 208 240 186.469 240 160C240 151.156 232.844 144 224 144S208 151.156 208 160C208 168.812 200.828 176 192 176C183.156 176 176 183.156 176 192S183.156 208 192 208ZM304 176C295.156 176 288 183.156 288 192C288 200.812 280.828 208 272 208C263.156 208 256 215.156 256 224S263.156 240 272 240C298.469 240 320 218.469 320 192C320 183.156 312.844 176 304 176Z"/></svg>
